X:90
T:Small Coals an' Little Money
Z:Jack Campin, http://www.campin.me.uk/
S:Northumbrian Minstrelsy
M:4/4
L:1/8
K:G
e2cA eA B/c/d|e2cA dG B/c/d |\
e2cA eA B/c/d|edge dG B/c/d:|
eAcA eA B/c/d|eAcA dG B/c/d |\
eAcA eA B/c/d|edge dG B/c/d:|

